X:91
T:Hide Parke
R:jig
H:This short-lived dance may be associated with Shirley's popular play
H:"Hide Park" (1637), which contained a wedding scene with dancing. In
H:1668, Pepys attended a revival which included live horses brought on
H:stage, probably for the race scene in the fourth act. He was not much
H:impressed and considered it "a very moderate play".
P:AABB
M:6/8
L:1/8
Q:110
K:D
fga afd|fga e2d|fef gaf/2g/2|ae>d d3||
e>fe ecA|ABc cde|def fga|aga f>ed|efg g>ag|efg e>dc|dde ffg|ae>d d3||

